Sources/FrostedUI/Resources/Icons.xcassets/discordSize20.imageset/discord-size-20.svg

<svg
  width="20"
  height="20"
  viewBox="0 0 20 20"
  fill="none"
  xmlns="http://www.w3.org/2000/svg"
  data-fui-icon="true"
>
  <path
    d="M15.5535 4.92569C14.5023 4.44187 13.3926 4.09864 12.2526 3.90475C12.0966 4.18508 11.9555 4.4735 11.8297 4.76881C10.6155 4.58487 9.38066 4.58487 8.16641 4.76881C8.04063 4.47354 7.89949 4.18512 7.74357 3.90475C6.60289 4.10027 5.4924 4.44433 4.44013 4.92822C2.3511 8.03529 1.78479 11.0652 2.06794 14.0521C3.29133 14.9607 4.66066 15.6518 6.11639 16.0952C6.44418 15.652 6.73423 15.1819 6.98346 14.6897C6.51007 14.5119 6.05317 14.2927 5.61804 14.0344C5.73256 13.9509 5.84456 13.8649 5.95279 13.7814C7.21892 14.3799 8.6008 14.6903 10 14.6903C11.3991 14.6903 12.781 14.3799 14.0471 13.7814C14.1567 13.8712 14.2687 13.9573 14.3819 14.0344C13.946 14.2931 13.4882 14.5128 13.014 14.691C13.2629 15.1829 13.5529 15.6527 13.881 16.0952C15.338 15.6536 16.7084 14.9628 17.932 14.0534C18.2642 10.5895 17.3644 7.58745 15.5535 4.92569Z"
    stroke="currentColor"
    stroke-width="1.5"
  />
  <path
    d="M5.90247 10.6097C5.90247 11.4953 6.55434 12.2152 7.34339 12.2152 8.14754 12.2152 8.7692 11.4953 8.78309 10.6097 8.79691 9.7242 8.15006 8.99802 7.34087 8.99802 6.53169 8.99802 5.90247 9.7242 5.90247 10.6097zM11.2195 10.6097C11.2195 11.4953 11.8688 12.2152 12.6591 12.2152 13.4632 12.2152 14.0837 11.4953 14.0975 10.6097 14.1114 9.7242 13.4696 8.99802 12.6591 8.99802 11.8486 8.99802 11.2195 9.7242 11.2195 10.6097z"
    fill="currentColor"
  />
</svg>

<svg xmlns="http://www.w3.org/2000/svg" width="20" height="20" fill="none" data-fui-icon="true" viewBox="0 0 20 20"><path stroke="currentColor" stroke-width="1.5" d="M15.554 4.926a13.2 13.2 0 0 0-3.301-1.021q-.234.42-.423.864a12.2 12.2 0 0 0-3.664 0 9 9 0 0 0-.422-.864c-1.141.195-2.252.54-3.304 1.023-2.089 3.107-2.655 6.137-2.372 9.124a13.3 13.3 0 0 0 4.048 2.043q.493-.666.867-1.405a8.6 8.6 0 0 1-1.365-.656c.115-.083.227-.17.335-.253a9.47 9.47 0 0 0 8.094 0q.165.136.335.253a8.6 8.6 0 0 1-1.368.657q.374.74.867 1.404a13.2 13.2 0 0 0 4.051-2.042c.332-3.464-.568-6.466-2.378-9.127Z"/><path fill="currentColor" d="M5.902 10.61c0 .885.652 1.605 1.441 1.605.805 0 1.426-.72 1.44-1.605.014-.886-.633-1.612-1.442-1.612-.81 0-1.439.726-1.439 1.612m5.318 0c0 .885.649 1.605 1.44 1.605.803 0 1.424-.72 1.438-1.605.013-.886-.628-1.612-1.439-1.612-.81 0-1.44.726-1.44 1.612"/></svg>
